X: 1
T: Bernie Oldrid's Boots
M: 2/4
L: 1/8
R: polka
K: Gmaj
|: de/d/ BG | FA-AB | cd/c/ AF | GA Bc |
de/d/ BG | FA AB | cB/c/ eF | G2 G2 :|
|: dg-gf/g/ |f e e2 | A>B cd | ed d/c/B/c/ |
dg gf/g/ | fe e2 | AB cA | GF G2 :|
